X:1
T:Répertoire Gérard Lajoie
R:reel
M:C|
L:1/8
K:Bm
cd|:"A"e3e efed|cABc A2 F2|"A"EAAE AEAB|"Bm"cABc "E7"B2Ac|
"A"e3e efed|cABc A2 F2|"A"EAAE AEAB|1"E7"cedB "A"A3c:|\
[2 "E7"cedB "A7"A2FG|]
|:"D"AAFA "D7/F#"d3c|"G"B2GB "Em"e2 d2|"A7"cAce agec|"D"defd "A7"A2FG|
"D"AAFA "D7/F#"d3c|"G"B2GB "Em"e2 d2|"A7"cAce agec|1dfec "D"d2FG:|[2 dfec "D"d2|]



